Papirus/64x64/apps/chromium-browser.svg

<svg xmlns="http://www.w3.org/2000/svg" width="64" height="64" version="1">
 <circle style="opacity:.2" cx="32" cy="33" r="28"/>
 <path style="opacity:.1" d="m31.988333 59.969839c-15.503815 0-27.985666-12.481451-27.985666-27.985667 0-0.234677-0.006-0.466373 0-0.699631 0.3700156 15.176819 12.716048 27.285675 27.985666 27.285675 15.269019 0 27.615672-12.108656 27.985667-27.285675 0.006 0.233257 0 0.464954 0 0.699631 0 15.503816-12.481451 27.985667-27.985667 27.985667z"/>
 <path style="fill:#6199f6" d="m8.6998295 16.504263c-0.4817493 0.731944-0.927343 1.516337-1.37889 2.292941a27.999667 27.999667 0 0 0 -3.3202729 13.202968 27.999667 27.999667 0 0 0 27.999666 27.999667 27.999667 27.999667 0 0 0 0.429683 -0.0156l13.257654-22.046637c-1.062027 1.729879-5.486734 3.944909-7.374912 5.035096-6.041928 3.488358-13.714563 1.233551-17.202919-4.808537l-12.41001-21.659898z"/>
 <path style="fill:#a2c2fa" d="m32.031583 18.000339c-0.03094 0 4.443979 1.995873 6.331957 3.085901 4.824814 2.785647 5.328398 12.734559 5.339778 16.76152l0.808584 0.468744-0.824208 1.425765c-0.000064 0.0014 0 0.0664 0 0.0664l-0.312496 0.472656-11.374865 19.702892c0.07422 0.0019 0.148519 0.0082 0.222654 0.0078a27.999667 27.999667 0 0 0 1.160142 -0.04296c0.224261-0.0104 0.448167-0.0116 0.671868-0.02734a27.999667 27.999667 0 0 0 2.632781 -0.32031c0.05748-0.0096 0.114458-0.0213 0.171878-0.03126a27.999667 27.999667 0 0 0 23.140344 -27.569974 27.999667 27.999667 0 0 0 -3.792923 -13.999834h-24.175494z"/>
 <path style="fill:#396bd7" d="m31.988615 4.0005059a27.999667 27.999667 0 0 0 -0.48437 0.01562 27.999667 27.999667 0 0 0 -1.484356 0.054687 27.999667 27.999667 0 0 0 -0.08204 0.01172 27.999667 27.999667 0 0 0 -2.53122 0.304684c-0.0857 0.01408-0.172278 0.024532-0.257809 0.039061-0.0052 0.000894-0.0104 0.00298-0.0156 0.0039a27.999667 27.999667 0 0 0 -2.62108 0.5898471 27.999667 27.999667 0 0 0 -5.210874 2.0273197 27.999667 27.999667 0 0 0 -0.621087 0.3554645 27.999667 27.999667 0 0 0 -10.913932 10.617061l11.378771 19.710702 0.238278 0.476558 0.05859 0.03516 0.53515 0.929677 4.910097 3.945265 1.363266-0.582025 1.562481 0.984364c-0.184895-0.340768-0.370224-0.849022-0.550772-1.417957l9.183484-3.925732-9.503792-16.464649c0.869413-2.005689 2.389615-3.412261 5.058533-3.710894h24.206744a27.999667 27.999667 0 0 0 -1.519514 -2.351534 27.999667 27.999667 0 0 0 -1.710917 -2.1406 27.999667 27.999667 0 0 0 -0.07422 -0.08594 27.999667 27.999667 0 0 0 -1.816382 -1.863255 27.999667 27.999667 0 0 0 -0.191404 -0.175779 27.999667 27.999667 0 0 0 -1.917947 -1.60545 27.999667 27.999667 0 0 0 -0.269526 -0.2031226 27.999667 27.999667 0 0 0 -1.980447 -1.3476404 27.999667 27.999667 0 0 0 -0.382807 -0.234372 27.999667 27.999667 0 0 0 -1.992165 -1.0859247 27.999667 27.999667 0 0 0 -0.566399 -0.269528 27.999667 27.999667 0 0 0 -1.914039 -0.8007716 27.999667 27.999667 0 0 0 -0.738273 -0.2734344 27.999667 27.999667 0 0 0 -1.843728 -0.5624933 27.999667 27.999667 0 0 0 -0.925769 -0.2382784 27.999667 27.999667 0 0 0 -1.722638 -0.3437459 27.999667 27.999667 0 0 0 -1.097643 -0.1640606 27.999667 27.999667 0 0 0 -1.570293 -0.1562482 27.999667 27.999667 0 0 0 -1.972633 -0.097655 27.999667 27.999667 0 0 0 -0.0118 0z"/>
 <path style="opacity:.2;fill:#ffffff" d="m32 4.0001605a27.999667 27.999667 0 0 0 -28 28 27.999667 27.999667 0 0 0 0.0175782 0.492188 27.999667 27.999667 0 0 1 27.982422 -27.492188 27.999667 27.999667 0 0 1 27.972656 27.5 27.999667 27.999667 0 0 0 0.02539 -0.5 27.999667 27.999667 0 0 0 -27.998046 -28z"/>
 <rect style="opacity:.2" width="28" height="28" x="-47" y="-46" rx="14" ry="14" transform="matrix(0,-1,-1,0,0,0)"/>
 <rect style="fill:#ffffff" width="28" height="28" x="-46" y="-46" rx="14" ry="14" transform="matrix(0,-1,-1,0,0,0)"/>
 <rect style="fill:#4688f4" width="22" height="22" x="-43" y="-43" rx="11" ry="11" transform="matrix(0,-1,-1,0,0,0)"/>
</svg>

<svg xmlns="http://www.w3.org/2000/svg" width="64" height="64" version="1">
 <circle style="opacity:0.2" cx="32" cy="33" r="28"/>
 <path style="fill:#6199f6" d="m8.7 16.504c-0.482 0.732-0.927 1.516-1.379 2.293a28 28 0 0 0 -3.32 13.203 28 28 0 0 0 28 28 28 28 0 0 0 0.43 -0.016l13.258-22.047c-1.062 1.73-5.487 3.945-7.375 5.035-6.042 3.488-13.715 1.234-17.203-4.809l-12.41-21.66z"/>
 <path style="fill:#396bd7" d="M 19.145,37.731 7.766,18.02 C 11.864,10.926 18.414,6.714 24.512,5.02 27.31,4.248 29.502,4.059 32,4 35.325,4 46.87,4.822 54.688,15.649 55.233,16.407 55.74,17.192 56.207,18 H 32 C 29.331,18.299 27.811,19.706 26.942,21.711 L 36.446,38.176 24.887,43.117"/>
 <path style="fill:#a2c2fa" d="M 43.375,40.281 32,59.984 C 32.075,59.986 32.149,59.992 32.223,59.992 32.61,59.986 32.997,59.971 33.383,59.949 33.607,59.939 33.831,59.937 34.055,59.922 34.937,59.857 35.816,59.75 36.688,59.601 36.745,59.592 36.802,59.58 36.86,59.57 50.241,57.212 59.998,45.587 60,32 59.987,27.081 58.679,22.253 56.207,18 L 32.032,18 C 32.001,18 36.476,19.996 38.364,21.086 43.188,23.872 43.692,33.821 43.703,37.848 L 44.512,38.317"/>
 <path style="opacity:0.2;fill:#ffffff" d="M 32 4 A 28 28 0 0 0 4 32 A 28 28 0 0 0 4.0352 32.5 A 28 28 0 0 1 32 5 A 28 28 0 0 1 59.982 32.252 A 28 28 0 0 0 60 32 A 28 28 0 0 0 32 4 z"/>
 <circle style="opacity:0.2" cx="32" cy="33" r="14"/>
 <circle style="fill:#ffffff" cx="32" cy="32" r="14"/>
 <circle style="fill:#4688f4" cx="32" cy="32" r="11"/>
</svg>
